X:79
T:Hare's Foot (reel), The 
B:CRE1.185 (Cois an Ghiorria)
F:file ID: cre.1/079hares_f
S:Tommy Potts
M:C
L:1/8
Q:180
R:reel
K:G
GABG ABGA|BEE2 GEDE|G3A BABd|(3efg fd edBA|
GABG ABGA|BEE2 GEDE|G3A BABd|(3efg fd e3||
f|g2fg edB^c|d2ed Bcdf|g2fg edBA|Beed e3f|
g2fg edB^c|d2ed Bdd2|egfg edBd|eaa2 gedB||G8||

%%%

